assets/images/label.svg

<svg fill="none" height="58" viewBox="0 0 232 58" width="232" xmlns="http://www.w3.org/2000/svg">
    <path
        d="M143.9 36.1238L137.961 52.8328C137.501 54.2644 136.169 55.2301 134.672 55.2172H133.94C132.422 55.2315 131.064 54.2724 130.563 52.8328L124.529 36.1238C124.44 35.851 124.623 35.4833 124.989 35.4833H129.553C129.736 35.4833 129.919 35.6671 130.014 35.851L134.306 50.2644L138.51 35.851C138.604 35.673 138.781 35.4832 138.964 35.4832H143.446C143.812 35.4832 143.995 35.851 143.9 36.1238ZM151.576 35.5781H147.555C147.278 35.5781 147.101 35.762 147.101 36.0348V54.7605C147.101 55.0393 147.284 55.2172 147.561 55.2172H151.576C151.853 55.2172 152.037 55.0333 152.037 54.7605V36.0348C152.037 35.7561 151.853 35.5781 151.576 35.5781ZM149.563 27.0368C148.016 27.0368 146.729 28.235 146.729 29.7001C146.729 31.171 148.01 32.3633 149.563 32.3633C151.121 32.3633 152.397 31.171 152.397 29.706C152.397 28.235 151.121 27.0368 149.563 27.0368ZM121.972 43.0043V52.6549C121.982 53.677 121.306 54.5778 120.325 54.8495C118.772 55.3121 116.764 55.6799 114.657 55.6799C108.723 55.6799 105.8 53.3784 105.8 49.345C105.8 43.9296 111.374 42.9213 117.314 42.5535V41.5452C117.314 39.4336 116.032 38.8819 113.747 38.8819C112.472 38.8819 110.913 39.2497 109.638 39.6175C109.455 39.7064 109.178 39.6175 109.083 39.3446L108.079 36.6755C107.902 36.4026 108.079 36.1238 108.357 36.0348C109.91 35.5781 112.012 35.1154 114.113 35.1154C118.5 35.0205 122.061 36.3018 121.972 43.0043ZM117.314 51.7295L117.308 51.7296V45.6735C113.659 45.8574 110.459 46.2251 110.459 49.1612C110.459 51 111.923 52.0973 114.48 52.0973C115.578 52.0973 116.764 51.9134 117.314 51.7295ZM171.863 43.0043V52.6549C171.873 53.677 171.197 54.5778 170.216 54.8495C168.574 55.3121 166.561 55.6799 164.459 55.6799C158.519 55.6799 155.597 53.3784 155.597 49.345C155.597 43.9296 161.17 42.9213 167.11 42.5535V41.5452C167.11 39.4336 165.829 38.8819 163.544 38.8819C162.269 38.8819 160.716 39.2497 159.435 39.6175C159.252 39.7064 158.98 39.6175 158.885 39.3446L157.882 36.6755C157.699 36.4026 157.882 36.1238 158.153 36.0348C159.706 35.5781 161.808 35.1154 163.91 35.1154C168.297 35.0205 171.863 36.3018 171.863 43.0043ZM167.11 45.6735C163.449 45.8574 160.261 46.2251 160.261 49.1612C160.261 51 161.719 52.0973 164.276 52.0973C165.374 52.0973 166.561 51.9134 167.11 51.7295V45.6735ZM208.776 36.4916L189.859 21.0698C189.405 20.702 188.767 20.8918 188.678 21.4375H188.672L185.384 33.5555C185.148 34.353 185.6 35.1918 186.394 35.4289C186.482 35.4554 186.573 35.4736 186.665 35.4833L197.812 36.8593C198.084 36.8593 198.084 37.2271 197.812 37.2271L186.021 38.4193C184.743 38.5395 183.68 39.4612 183.376 40.7148L179.716 54.4877C179.539 55.1282 180.265 55.585 180.814 55.3121L208.682 37.6897C209.143 37.411 209.143 36.8593 208.776 36.4916Z"
        fill="#FF585D" />
    <path
        d="M57.3046 55.2219H53.1042C52.8328 55.2219 52.65 55.0457 52.65 54.7697V42.2267C52.65 40.3183 51.3698 39.232 49.4525 39.232C48.3868 39.1824 47.3424 39.5394 46.5322 40.2302V54.7697C46.5322 55.0398 46.3493 55.2219 46.072 55.2219H42.0604C41.7831 55.2219 41.6002 55.0457 41.6002 54.7697V42.0447C41.6002 40.3183 40.32 39.2261 38.2198 39.2261C37.1284 39.2261 36.2141 39.414 35.4825 39.6841V54.7756C35.4825 55.0398 35.3055 55.2219 35.0283 55.2219H31.0107C30.7334 55.2219 30.5505 55.0457 30.5505 54.7697V37.8696C30.5505 37.1415 31.0107 36.5953 31.6479 36.3194C33.4766 35.6852 35.6654 35.3211 37.9485 35.3211C41.146 35.3211 43.1518 36.3194 44.2491 37.3176C46.1887 36.0104 48.4788 35.3146 50.8211 35.3211C55.1159 35.3211 57.7589 37.8696 57.7589 41.7746V54.7697C57.7589 55.0398 57.5819 55.2219 57.3046 55.2219ZM19.2294 55.6799L19.2264 55.6798L19.2235 55.6799H19.2294ZM21.4123 43.595C19.6837 43.0488 18.4035 42.4088 18.4035 40.9525C18.4035 39.8661 19.4065 38.9559 21.1409 38.9559C22.3493 39.0206 23.5318 39.3304 24.6157 39.8661C24.887 39.9542 25.1584 39.8661 25.2528 39.596C25.5242 38.9619 26.0728 37.7756 26.3442 37.1415C26.533 36.8654 26.4386 36.5953 26.1672 36.5014C24.7042 35.8672 22.7868 35.3211 20.5037 35.3211C15.9375 35.3211 13.2946 37.5936 13.2946 41.0464C13.2946 44.8634 16.4036 46.0437 18.8696 46.9538C20.604 47.5 21.8783 48.1341 21.8783 49.5905C21.8783 50.9528 20.7869 51.769 18.9581 51.769C17.7723 51.769 15.9435 51.3169 14.852 50.7708C14.5748 50.6827 14.3034 50.7708 14.209 51.0409C13.9376 51.769 13.3005 53.1372 13.0232 53.8595C12.9347 54.0416 13.1176 54.4056 13.3005 54.4996C14.8513 55.1335 17.0446 55.6792 19.2264 55.6798C24.4336 55.6788 27.1702 53.3126 27.1702 49.5846C27.1702 45.5915 23.9726 44.4993 21.4123 43.595ZM76.9322 43.1311V52.6851C76.9427 53.6954 76.2699 54.5867 75.2921 54.8578C73.6462 55.3158 71.6403 55.6799 69.5401 55.6799C63.6053 55.6799 60.6791 53.4015 60.6791 49.4084C60.6791 44.0471 66.2541 43.0488 72.1831 42.6848V41.6865C72.1831 39.596 70.9088 39.0499 68.6257 39.0499C67.3515 39.0499 65.794 39.414 64.5197 39.7781C64.3368 39.8661 64.0596 39.7781 63.9652 39.5079L62.9622 36.8655C62.8737 36.5953 62.9622 36.3194 63.2395 36.2313C64.7911 35.7791 66.8913 35.3211 68.9856 35.3211H68.9915C73.3748 35.2271 76.8437 36.4955 76.9322 43.1311ZM72.1831 45.7736C68.5313 45.9556 65.3397 46.3197 65.3397 49.2264C65.3397 51.0468 66.7969 52.1331 69.3513 52.1331C70.4487 52.1331 71.6403 51.9511 72.1831 51.769V45.7736ZM90.6307 35.7791H89.0792C84.6958 35.7791 81.227 39.0499 81.227 43.4129V54.7697C81.227 55.0398 81.4039 55.2219 81.6812 55.2219H85.6929C85.9701 55.2219 86.1531 55.0457 86.1531 54.7697V43.9532C86.1531 40.8644 88.2532 39.8661 90.7192 39.596C90.9965 39.596 91.1735 39.3201 91.1735 39.138V36.2313C91.1735 35.9612 90.9021 35.7791 90.6307 35.7791ZM100.117 55.5859C101.12 55.5859 102.123 55.4098 102.766 55.1338C102.935 55.0467 103.041 54.8715 103.037 54.6817V51.587C103.037 51.3169 102.766 51.0468 102.495 51.1348C102.217 51.2288 101.946 51.2288 101.669 51.2288C100.394 51.2288 99.3856 50.6827 99.3856 49.0444V39.414H102.583L102.589 39.414C102.86 39.414 103.043 39.232 103.043 38.9559V36.2313C103.043 35.9612 102.866 35.7791 102.589 35.7791H99.3914V31.1401C99.3914 30.87 99.2145 30.6879 98.9372 30.6879H95.0022C94.7308 30.6879 94.548 30.8641 94.548 31.1401V49.4084C94.548 53.4954 96.3768 55.5859 100.117 55.5859ZM218.354 1.23902L190.509 18.6911C190.055 18.9671 190.055 19.5132 190.42 19.8714L209.316 35.1391C209.776 35.5031 210.414 35.233 210.508 34.775L213.794 22.784C214.03 21.9944 213.578 21.164 212.785 20.9293C212.696 20.9031 212.606 20.8851 212.514 20.8756L201.376 19.5074C201.104 19.5074 201.104 19.1491 201.376 19.1491L213.151 17.963C214.433 17.8488 215.5 16.9352 215.806 15.6904L219.452 2.06111C219.634 1.42694 218.903 0.968911 218.354 1.23902Z"
        fill="white" />
</svg>

<svg fill="none" height="58" width="232" xmlns="http://www.w3.org/2000/svg">
    <path
        d="m143.9 36.124-5.939 16.709a3.427 3.427 0 0 1-3.289 2.384h-.732a3.543 3.543 0 0 1-3.377-2.384l-6.034-16.71c-.089-.272.094-.64.46-.64h4.564c.183 0 .366.184.461.368l4.292 14.413 4.204-14.413c.094-.178.271-.368.454-.368h4.482c.366 0 .549.368.454.64Zm7.676-.546h-4.021c-.277 0-.454.184-.454.457V54.76c0 .278.183.456.46.456h4.015c.277 0 .461-.184.461-.456V36.035c0-.279-.184-.457-.461-.457Zm-2.013-8.541c-1.547 0-2.834 1.198-2.834 2.663 0 1.471 1.281 2.663 2.834 2.663 1.558 0 2.834-1.192 2.834-2.657 0-1.471-1.276-2.67-2.834-2.67Zm-27.591 15.967v9.65a2.252 2.252 0 0 1-1.647 2.195c-1.553.463-3.561.83-5.668.83-5.934 0-8.857-2.3-8.857-6.334 0-5.415 5.574-6.424 11.514-6.791v-1.009c0-2.111-1.282-2.663-3.567-2.663-1.275 0-2.834.368-4.109.736-.183.088-.46 0-.555-.273l-1.004-2.67c-.177-.272 0-.551.278-.64 1.553-.457 3.655-.92 5.756-.92 4.387-.095 7.948 1.187 7.859 7.89Zm-4.658 8.726h-.006v-6.056c-3.649.183-6.849.551-6.849 3.487 0 1.839 1.464 2.936 4.021 2.936 1.098 0 2.284-.184 2.834-.367Zm54.549-8.726v9.65a2.252 2.252 0 0 1-1.647 2.195c-1.642.463-3.655.83-5.757.83-5.94 0-8.862-2.3-8.862-6.334 0-5.415 5.573-6.424 11.513-6.791v-1.009c0-2.111-1.281-2.663-3.566-2.663-1.275 0-2.828.368-4.109.736-.183.088-.455 0-.55-.273l-1.003-2.67c-.183-.272 0-.551.271-.64 1.553-.457 3.655-.92 5.757-.92 4.387-.095 7.953 1.187 7.953 7.89Zm-4.753 2.67c-3.661.183-6.849.551-6.849 3.487 0 1.839 1.458 2.936 4.015 2.936 1.098 0 2.285-.184 2.834-.367v-6.056Zm41.666-9.182L189.859 21.07c-.454-.368-1.092-.178-1.181.367h-.006l-3.288 12.119a1.508 1.508 0 0 0 1.281 1.927l11.147 1.376a.185.185 0 0 1 0 .368l-11.791 1.192a3.016 3.016 0 0 0-2.645 2.296l-3.66 13.773c-.177.64.549 1.097 1.098.824l27.868-17.622c.461-.279.461-.83.094-1.198Z"
        fill="#FF585D" />
    <path
        d="M57.305 55.222h-4.2c-.272 0-.455-.176-.455-.452V42.227c0-1.909-1.28-2.995-3.197-2.995a4.2 4.2 0 0 0-2.92.998v14.54c0 .27-.184.452-.461.452H42.06c-.277 0-.46-.176-.46-.452V42.045c0-1.727-1.28-2.819-3.38-2.819-1.092 0-2.006.188-2.737.458v15.092c0 .264-.177.446-.455.446h-4.017c-.278 0-.46-.176-.46-.452v-16.9c0-.728.46-1.275 1.097-1.55 1.829-.635 4.017-.999 6.3-.999 3.198 0 5.204.998 6.301 1.997a11.703 11.703 0 0 1 6.572-1.997c4.295 0 6.938 2.549 6.938 6.454V54.77c0 .27-.177.452-.454.452Zm-38.076.458h-.005.005Zm2.183-12.085c-1.728-.546-3.008-1.186-3.008-2.642 0-1.087 1.003-1.997 2.737-1.997a8.92 8.92 0 0 1 3.475.91c.271.088.542 0 .637-.27.271-.634.82-1.82 1.091-2.454.189-.277.095-.547-.177-.64a14.196 14.196 0 0 0-5.663-1.18c-4.567 0-7.21 2.272-7.21 5.724 0 3.817 3.11 4.998 5.576 5.908 1.734.546 3.008 1.18 3.008 2.636 0 1.363-1.091 2.179-2.92 2.179-1.186 0-3.014-.452-4.106-.998-.277-.088-.549 0-.643.27-.271.728-.909 2.096-1.186 2.819-.088.182.095.546.277.64 1.551.633 3.745 1.18 5.926 1.18 5.208-.001 7.944-2.367 7.944-6.095 0-3.993-3.197-5.086-5.758-5.99Zm55.52-.464v9.554a2.233 2.233 0 0 1-1.64 2.173c-1.646.458-3.652.822-5.752.822-5.935 0-8.86-2.279-8.86-6.272 0-5.36 5.574-6.36 11.503-6.723v-.998c0-2.091-1.274-2.637-3.557-2.637-1.275 0-2.832.364-4.106.728-.183.088-.46 0-.555-.27l-1.003-2.643c-.088-.27 0-.546.277-.634 1.552-.452 3.652-.91 5.747-.91h.005c4.384-.094 7.853 1.175 7.941 7.81Zm-4.749 2.643c-3.652.182-6.843.546-6.843 3.452 0 1.82 1.457 2.907 4.011 2.907 1.098 0 2.29-.182 2.832-.364v-5.995Zm18.448-9.995h-1.552c-4.383 0-7.852 3.27-7.852 7.634V54.77c0 .27.177.452.454.452h4.012c.277 0 .46-.176.46-.452V43.953c0-3.089 2.1-4.087 4.566-4.357.278 0 .455-.276.455-.458v-2.907c0-.27-.272-.452-.543-.452Zm9.486 19.807c1.003 0 2.006-.176 2.649-.452a.498.498 0 0 0 .271-.452v-3.095c0-.27-.271-.54-.542-.452-.278.094-.549.094-.826.094-1.275 0-2.283-.546-2.283-2.185v-9.63h3.203c.271 0 .454-.182.454-.458V36.23c0-.27-.177-.452-.454-.452h-3.198V31.14c0-.27-.177-.452-.454-.452h-3.935c-.271 0-.454.176-.454.452v18.268c0 4.087 1.829 6.178 5.569 6.178ZM218.354 1.239l-27.845 17.452c-.454.276-.454.822-.089 1.18l18.896 15.268c.46.364 1.098.094 1.192-.364l3.286-11.991a1.49 1.49 0 0 0-1.28-1.908l-11.138-1.369c-.272 0-.272-.358 0-.358l11.775-1.186a3.006 3.006 0 0 0 2.655-2.273l3.646-13.629c.182-.634-.549-1.092-1.098-.822Z"
        fill="#fff" />
</svg>
